X:1
T:Title
%%score { ( 1 3 ) | ( 2 4 ) }
L:1/8
M:4/4
K:Eb
V:1 treble nm="Grand Piano"
V:3 treble 
V:2 bass 
V:4 bass 
V:1
 z4 z2[Q:1/4=92] GA | B>B Bc B<G [DF]>[DG] | z2 C2 E2 G[FA] | [GB]>B BB cBAG | F4 z4 | %5
 E>E EE [EF][EF][DF][DF] |[M:35/32] [EG][EG][EA][Ec]c/ B2- B/(3:2:4E3/4-E/8[EF]3/2-[EF]/4 | %7
[M:4/4] (9:8:8[EG][EG][CEA]3/2[B,EG] [B,DG][A,DF][B,DG]3/2[A,DF] |[M:3/4] (3E3- [CE]3 E3 | %9
[M:1/4] B2 |[M:4/4] z4 (5:4:4ce3/2dc3/2 | (5:4:4B2 B/ Bc3/2 z4 | %12
 (3E/E/- E2 z2 (5:4:5E2- E/ A/-A3/2G/ | %13
 (7:8:8[EG][DF]/-[B,D-F-]3/2[B,D-F-]/ [B,DF-]3/2[B,-D-FG-]/[B,DG]/[A,DF] | %14
 (9:8:8EEE3/2E [EF][EF][DF]3/2[DF] | %15
[M:35/32] (9:8:18[EG]-[EG]3/32[EG]-[EG]3/32[EA]-[EA]3/32[Ec]-[Ec]3/32c/-c3/64 z/ z3/64 B2- B3/16E-E3/32[EF]- [EF]3/32 | %16
[M:4/4] [EG][EG][CEA][B,EG] [B,DG][A,DF] [B,DG]>[A,DF] |[M:7/8] E- E3 z z2 |] %18
V:2
 z4 z2 [E,B,E][E,A,E] | [E,G,E]>[E,G,E] [E,G,E][E,A,E] [E,G,E]<[E,B,E] [B,,A,]>[B,,B,] | %2
 [E,G,]2 [A,,A,]2 [E,G,B,]2 [E,B,E][E,B,] | %3
 [E,B,]>[E,G,E] [E,G,E][E,G,E] [A,E][G,B,E][F,B,D][E,B,E] | %4
 [D,B,]2 [C,=A,]2 [B,,B,]2 [B,,B,][B,,_A,] | %5
 [E,G,]>[E,G,] [E,G,][E,G,] [B,,B,][B,,B,][B,,B,][B,,B,] | %6
[M:35/32] [E,B,][D,B,][C,A,][A,,A,][E,A,E]/ [E,G,E]2- [E,G,E]/(3:2:4[C,G,]3/4-[C,G,]/8[C,=A,]3/2-[C,A,]/4 | %7
[M:4/4] (9:8:8[B,,B,][B,,B,]B,,3/2B,, B,,B,,B,,3/2B,, |[M:3/4] (3[E,G,]3 [A,,A,]3 [E,G,B,]3 | %9
[M:1/4] [E,G,E]2 |[M:4/4] (5:4:4[A,E]2 [A,E]/ [A,E][A,E]3/2 z4 | %11
 z4 (5:4:5[E,G,E]/[E,B,E]/-[E,B,E]3/2 [E,B,E][E,A,D]3/2 | %12
 (3[E,G,]/[E,G,]/- [E,G,]2 z2 (5:4:5[E,G,]2- [E,G,]/ [E,CE]/-[E,CE]3/2[E,B,E]/ | %13
 (7:8:7[B,,B,][B,,B,]/B,,3/2.B,,/ B,,3/2B,,B,, | %14
 (9:8:8[E,G,][E,G,][E,G,]3/2[E,G,] [B,,B,][B,,B,][B,,B,]3/2[B,,B,] | %15
[M:35/32] (9:8:18[E,B,]-[E,B,]3/32[_D,B,]-[D,B,]3/32[C,A,]-[C,A,]3/32[A,,A,]-[A,,A,]3/32[E,A,E]/-[E,A,E]3/64 z/ z3/64 [E,G,E]2- [E,G,E]3/16[C,G,]-[C,G,]3/32[C,=A,]- [C,A,]3/32 | %16
[M:4/4] [B,,B,][B,,B,]B,,B,, B,,B,, B,,>B,, |[M:7/8] [E,G,]2 [A,,A,]2 [E,G,B,]3 |] %18
V:3
 x8 | x8 | E4 z4 | x8 | z2 E2 [DF]2 [DG][DF] | x8 |[M:35/32] x35/4 |[M:4/4] x511/64 |[M:3/4] x6 | %9
[M:1/4] x2 |[M:4/4] (5:4:4c2 c/ cc3/2 z4 | z4 (5:4:5B/G/-G3/2 GF3/2 | z2 E2- E/4 z/4 z/ z z2 | %13
 x511/64 | x511/64 |[M:35/32] x285/32 |[M:4/4] x8 |[M:7/8] z2 C2 E3 |] %18
V:4
 x8 | x8 | x8 | x8 | x8 | x8 |[M:35/32] x35/4 |[M:4/4] x511/64 |[M:3/4] x6 |[M:1/4] x2 | %10
[M:4/4] z4 (5:4:4[A,E][A,CE]3/2[A,B,E][A,E]3/2 | (5:4:4[E,G,E]2 [E,G,E]/ [E,G,E][E,A,E]3/2 z4 | %12
 z2 [E,G,]2- [E,G,]/4 z/4 z/ z z2 | x511/64 | x511/64 |[M:35/32] x285/32 |[M:4/4] x8 |[M:7/8] x7 |] %18

